X:18510
T:Wangaratta Waltz
M:3/4
L:1/8
S:Harry Schaefer (1879-1954)
R:Waltz
A:Forbes, New South Wales, Australia
N:From the Schaefer manuscripts held in the National Library of Australia
Z:Transcribed into ABC by John Furlonger
K:G
D2||B4 A2|B4 A2|B2 G2 E2|D4 D2|c4 B2|c4 B2|c2 A2 F2|D4 d2|
d2 ^c2 =c2|B2 A2 G2|F4 E2|c6|B2 A2 G2|A2 E2 F2|G2 B2 d2|g4:|
D2||B2 A2 B2|D2 E2 F2|G2 F2 G2|E2 A2 G2|F2 e2 d2|d2 A2 c2|B6|G4 D2|
B2 A2 B2|D2 E2 F2|G2 F2 G2|E2 A2 G2|F2 e2 d2|d2 A2 B2|G6|G4 D2|
E4 c2|c4 E2|D4 B2|B4 D2|C4 A2|A4 B2|G6|D4 D2|
E4 c2|c4 E2|D4 B2|B4 D2|C4 A2|A4 B2|G6|G4 d2|
d2 ^c2 =c2|B2 A2 G2|F4 E2|c6|B2 A2 G2|A2 E2 F2|G2 B2 d2|g4|


